X: 32699
T: Polka Cat
R: polka
M: 2/4
K: Bminor
|:E/D/E/G/ AB|dB dB|E>F AB|cA cA|
Bd e>f|gf ef|1 ag fe|g/f/e/d/ B/A/G/F/:|2 af df|ef gf||
eA gA|eA Ae|Ag Af|ag fg|
eA gA|eA AB|dB AB|c3 z|
eA gA|eA Ae|Ag Af|ag fg|
eA gA|eA Af|ag fe|g/f/e/d/ B/A/G/F/|

